F[BALLADE
CUT[Die Mordeltern
    Es waren einmal zwei Bauernsoehn',]
CNR[die hatten Lust, in den Krieg zu geh'n,]
REG[Mitteleuropa, Deutschland / Frankreich, Elsass]
SRC[4, S. 308
    1940 gedruckt (geplant)]
KEY[Q0085N 16  G 3/4]
MEL[-5_-5-6-7_  1__3__-7_.1  2__.
    -5_-5-6-71  2__2_.21_2_  3__.
    1_1_3_  3_2_4__2_6_  5__.
    1_1_3_  3_2_4__-7__  1__0_ //] >>
FCT[Ballade, Habgier, Mord, Reue, Selbstmord]
